X:216
T:I'm On My Way Back To The Old Home
C:Bill Monroe - Doyle Lawson solo
N:From "The Bluegrass Album" Rounder 0140 Transcribed by Mike Stangeland
R:bluegrass
L:1/8
Q:1/4=209
M:4/4
K:Bb
z8 | "Bb"bb bb b2 bd' | bf ef dB _AB | "Eb"GE EE EG _AB | e2 ef ef bd' | "Bb"bf ef dB BB | 
dB BB dB BB | "F"[fA][fA] [fA][fA] [fA][fA] [fA][fA] | [f3A3]b bb bd' | "Bb"b2 bd' b2 bd' | 
bf ef dB _AB | "Eb"GE EE EG _AB | e2 ee ef bd' | "Bb"bf ef dB BB | "F"Af ff fe de | 
"Bb"B2 F=E _EC _D=D | B8 | z8 | 


